X: 36
T:Lass of Richmond Hill - Field Town
S:OY(ABC)2 (ABD)2
N:Tune as played for Grand Union Morris
M:4/4
L:1/8
Q:180
K:G
 "A" D2 | D2 G2 G2 G2 | AGFG A2 c2 | B2 G2 E2 A2 | G4 F2 D2  | D2 G2 G2
G2|  AGFG A2 G2 | FE D2 E2 ^C2 | D4 D2 ||
"B"G2 | FE D2 D2 G2 | FE D2 D2 G2 | FE D2 c2 B2 | B4 A2 G2 | FE D2 D2 G2
 |
 FE D2 d3  c | B2 GB  A2 FA | G4 G2 ||
 "C" D2 | D2 G2 G2 B2 | B6 G2 | F2 A2 A2 c2  | c6 A2 | B2 A2 G2  F2 | G2
 E2
D2 c2 | B2 GB A2 FA | G4 G2 ||
 "D" D2 | D2 G2 G2 B2 | B6 G2 | F2 A2 A2 c2  | c6 A2 | B4 A4 | G4  F4 |
G4 E4
| D4 c4 | B2 GB A2 FA | G4 G2 |
